hornpipes/bobbycaseys.htmlhornpipes/bobbycaseys.htmlhornpipes/bobbycaseys.htmlhornpipes/bobbycaseys.htmlhornpipes/bobbycaseys.htmlhornpipes/bobbycaseys.htmlhornpipes/bobbycaseys.htmlhornpipes/bobbycaseys.htmlhornpipes/bobbycaseys.htmlFrom <I>Augusta Summer Concert Souvenir: 1997</I>
hornpipes/bobbycaseys.htmlhornpipes/bobbycaseys.html<PRE>T:Gan Ainm (from Siobhan Egan)
T:Gan Ainm (from Siobhan Egan)
M:6/8
L:1/8
R:jig
D:Augusta Summer Concert Souvenir: 1997
Z:Devin McCabe
K:D
d2D FED|~=c3 ed^c|dcA GEA|1DED fge:|2DED DFA|
!:~d3 efg|fed cBA|~d3 efg|fdc def|
!gbg ~f3|ecA ABc|dcA GEA|1DED DFA:|2DED fge||

%  ABC2Win Version 2.1 11/18/2000
hornpipes/bobbycaseys.htmlhornpipes/bobbycaseys.htmlhornpipes/bobbycaseys.htmlhornpipes/bobbycaseys.htmlhornpipes/bobbycaseys.htmlhornpipes/bobbycaseys.htmlhornpipes/bobbycaseys.html